!!!!SEGMENT: pl-sa--l-1643--015_anonim--virgo-prudentissima-que-progrederis-quasi-aurora.krn
!!!cenid: 16xx:1370
!!!COM: Anonim
!!!COM-rismID: pe30004985
!!!CDT:
!!!CNT:
!!!OTL: Virgo prudentissima que progrederis quasi aurora
!!!PDT:
!!!AGN: Sacred
!!!YEC: Copyright 2022 Narodowy Instytut Fryderyka Chopina (https://polishscores.org)
!!!YEM: License CC-BY-4.0 (https://creativecommons.org/licenses/by/4.0)
!!!SMS-siglum: PL-SA
!!!SMS-shelfmark: L 1643
!!!SMS-shelfwork: 015 W
!!!SMS-variant:
!!!SMS-altvar:
!!!NIFC-rismSourceID: 1001064781
!!!NIFC-rismChildID: 1001064781
!!!NIFC-islandoraID:
!!!URL-pdf-islandora:
!!!URL-scan:
!!!IIIF:
!!!ONB-nifc: UWAGA: 8 ksiąg. Primi chori: 1mus Cantus (x), C 2dus (37), C 3tius (x), Bassus (x); Secondi chori: Primus Cantus (x), C 2dus (x), Altus (x), Bassus (46-47). UWAGA: metrum 2/2 i 3/2. Nie dodawać pustych linii, chyba że w rękopisie pojawiają się dodatkowe oznaczenia dotyczące pełnej obsady (a 4, a 8 itp.)
!!!AIN: 8 empty
!!!key:
**kern	**text	**kern	**kern	**kern	**kern	**kern	**kern	**text	**kern
*part8	*	*part7	*part6	*part5	*part4	*part3	*part2	*	*part1
*staff8	*	*staff7	*staff6	*staff5	*staff4	*staff3	*staff2	*	*staff1
*Iempty	*	*Iempty	*Iempty	*Iempty	*Iempty	*Iempty	*Iempty	*	*Iempty
*I"Baſsus 2di Chori	*	*I"Altus secundi Chori.	*I"Cantus 2dus Secundi Chori.	*I"Primus Cantus 2di Chori	*I"Bassus Primi Chori.	*I"Cantus 3tius Primi Chori	*I"Cantus 2dus Primi Chori.	*	*I"1m(us) Cantus Primi Chori
*I'II Coro B	*	*I'II Coro A	*I'II Coro S2	*I'II Coro S 1	*I'I Coro B	*I'I Coro S 3	*I'I Coro S 2	*	*I'I Coro S 1
*clefC3	*	*	*	*	*	*	*clefC1	*	*
*k[b-]	*	*	*	*	*	*	*k[b-]	*	*
*g:	*	*	*	*	*	*	*g:	*	*
*M2/2	*	*	*	*	*	*	*M2/2	*	*
*met(C|)	*	*	*	*	*	*	*met(C|)	*	*
=1-	=1-	=1-	=1-	=1-	=1-	=1-	=1-	=1-	=1-
!LO:TX:a:t=in Aſumptionis B V M. A 8 V	!	!	!	!	!	!	!	!	!LO:TX:t=P:problem=uwzględniono pozostałe głosy ze względu na notatkę "A 8 V" w II Coro B
00r	.	1ryy	1ryy	1ryy	1ryy	1ryy	2.b-\	Vir-	1ryy
.	.	.	.	.	.	.	4cc\	-go	.
=2-	=2-	=2-	=2-	=2-	=2-	=2-	=2-	=2-	=2-
.	.	1ryy	1ryy	1ryy	1ryy	1ryy	1dd	pru-	1ryy
=3-	=3-	=3-	=3-	=3-	=3-	=3-	=3-	=3-	=3-
.	.	1ryy	1ryy	1ryy	1ryy	1ryy	1cc	.	1ryy
=4-	=4-	=4-	=4-	=4-	=4-	=4-	=4-	=4-	=4-
.	.	1ryy	1ryy	1ryy	1ryy	1ryy	2cc\	-den-	1ryy
.	.	.	.	.	.	.	2g/	-tiſ-	.
=5-	=5-	=5-	=5-	=5-	=5-	=5-	=5-	=5-	=5-
1r	.	1ryy	1ryy	1ryy	1ryy	1ryy	2.a\	-si-	1ryy
.	.	.	.	.	.	.	4b-\	-ma	.
=6-	=6-	=6-	=6-	=6-	=6-	=6-	=6-	=6-	=6-
2r	.	1ryy	1ryy	1ryy	1ryy	1ryy	2cc\	.	1ryy
2f\	Vir-	.	.	.	.	.	2r	.	.
=7-	=7-	=7-	=7-	=7-	=7-	=7-	=7-	=7-	=7-
4B-/	-go	1ryy	1ryy	1ryy	1ryy	1ryy	00r	.	1ryy
4c/	.	.	.	.	.	.	.	.	.
4d/	.	.	.	.	.	.	.	.	.
4B-/	.	.	.	.	.	.	.	.	.
=8-	=8-	=8-	=8-	=8-	=8-	=8-	=8-	=8-	=8-
2.c/	Pru-	1ryy	1ryy	1ryy	1ryy	1ryy	.	.	1ryy
4d\	.	.	.	.	.	.	.	.	.
=9-	=9-	=9-	=9-	=9-	=9-	=9-	=9-	=9-	=9-
2e-X\	-den-	1ryy	1ryy	1ryy	1ryy	1ryy	.	.	1ryy
2B-/	.	.	.	.	.	.	.	.	.
=10-	=10-	=10-	=10-	=10-	=10-	=10-	=10-	=10-	=10-
2.F/	-ti-	1ryy	1ryy	1ryy	1ryy	1ryy	.	.	1ryy
4F/	-ſsi-	.	.	.	.	.	.	.	.
=11-	=11-	=11-	=11-	=11-	=11-	=11-	=11-	=11-	=11-
2B-/	-ma	1ryy	1ryy	1ryy	1ryy	1ryy	2r	.	1ryy
2r	.	.	.	.	.	.	4g/	quo	.
.	.	.	.	.	.	.	4a\	.	.
=12-	=12-	=12-	=12-	=12-	=12-	=12-	=12-	=12-	=12-
0r	.	1ryy	1ryy	1ryy	1ryy	1ryy	2b-\	pro-	1ryy
.	.	.	.	.	.	.	2cc\	-gre-	.
=13-	=13-	=13-	=13-	=13-	=13-	=13-	=13-	=13-	=13-
.	.	1ryy	1ryy	1ryy	1ryy	1ryy	1b-	-de-	1ryy
=14-	=14-	=14-	=14-	=14-	=14-	=14-	=14-	=14-	=14-
*custos:c	*	*	*	*	*	*	*	*	*
2r	.	1ryy	1ryy	1ryy	1ryy	1ryy	2cc\	-ris	1ryy
!LO:LB:g=original	!	!	!	!	!	!	!	!	!
2c/	quo	.	.	.	.	.	2r	.	.
=15-	=15-	=15-	=15-	=15-	=15-	=15-	=15-	=15-	=15-
2B-/	pro-	1ryy	1ryy	1ryy	1ryy	1ryy	0r	.	1ryy
2A/	-gre-	.	.	.	.	.	.	.	.
=16-	=16-	=16-	=16-	=16-	=16-	=16-	=16-	=16-	=16-
1G	-de-	1ryy	1ryy	1ryy	1ryy	1ryy	.	.	1ryy
=17-	=17-	=17-	=17-	=17-	=17-	=17-	=17-	=17-	=17-
2F/	-ris	1ryy	1ryy	1ryy	1ryy	1ryy	2r	.	1ryy
2r	.	.	.	.	.	.	2.dd\	qua-	.
=18-	=18-	=18-	=18-	=18-	=18-	=18-	=18-	=18-	=18-
0r	.	1ryy	1ryy	1ryy	1ryy	1ryy	.	.	1ryy
.	.	.	.	.	.	.	4dd\	-si	.
.	.	.	.	.	.	.	2dd\	au-	.
=19-	=19-	=19-	=19-	=19-	=19-	=19-	=19-	=19-	=19-
.	.	1ryy	1ryy	1ryy	1ryy	1ryy	1ee-X	-ro-	1ryy
=20-	=20-	=20-	=20-	=20-	=20-	=20-	=20-	=20-	=20-
2r	.	1ryy	1ryy	1ryy	1ryy	1ryy	2dd\	-ra	1ryy
2.B-/	qua-	.	.	.	.	.	2r	.	.
=21-	=21-	=21-	=21-	=21-	=21-	=21-	=21-	=21-	=21-
.	.	1ryy	1ryy	1ryy	1ryy	1ryy	0r	.	1ryy
4B-/	-si	.	.	.	.	.	.	.	.
2B-/	au-	.	.	.	.	.	.	.	.
=22-	=22-	=22-	=22-	=22-	=22-	=22-	=22-	=22-	=22-
1e-X	-ro-	1ryy	1ryy	1ryy	1ryy	1ryy	.	.	1ryy
=23-	=23-	=23-	=23-	=23-	=23-	=23-	=23-	=23-	=23-
2B-/	-ra	1ryy	1ryy	1ryy	1ryy	1ryy	2r	.	1ryy
*	*	*	*	*	*	*	*custos:ee-	*	*
2r	.	.	.	.	.	.	2dd\	ual-	.
!	!	!	!	!	!	!	!LO:LB:g=original	!	!
=24-	=24-	=24-	=24-	=24-	=24-	=24-	=24-	=24-	=24-
0r	.	1ryy	1ryy	1ryy	1ryy	1ryy	2ee-X\	-de	1ryy
.	.	.	.	.	.	.	2.b-\	ru-	.
=25-	=25-	=25-	=25-	=25-	=25-	=25-	=25-	=25-	=25-
.	.	1ryy	1ryy	1ryy	1ryy	1ryy	.	.	1ryy
.	.	.	.	.	.	.	8a\L	.	.
.	.	.	.	.	.	.	8g\J	.	.
.	.	.	.	.	.	.	2a\	-ti-	.
=26-	=26-	=26-	=26-	=26-	=26-	=26-	=26-	=26-	=26-
2r	.	1ryy	1ryy	1ryy	1ryy	1ryy	2b-\	-lans	1ryy
2B-/	Val-	.	.	.	.	.	2r	.	.
=27-	=27-	=27-	=27-	=27-	=27-	=27-	=27-	=27-	=27-
2c/	-de	1ryy	1ryy	1ryy	1ryy	1ryy	0r	.	1ryy
4d\	ru-	.	.	.	.	.	.	.	.
4eny\	.	.	.	.	.	.	.	.	.
=28-	=28-	=28-	=28-	=28-	=28-	=28-	=28-	=28-	=28-
1f	-ti-	1ryy	1ryy	1ryy	1ryy	1ryy	.	.	1ryy
=29-	=29-	=29-	=29-	=29-	=29-	=29-	=29-	=29-	=29-
2B-/	-lans	1ryy	1ryy	1ryy	1ryy	1ryy	2r	.	1ryy
2r	.	.	.	.	.	.	4g/	ual-	.
.	.	.	.	.	.	.	4a\	.	.
=30-	=30-	=30-	=30-	=30-	=30-	=30-	=30-	=30-	=30-
0r	.	1ryy	1ryy	1ryy	1ryy	1ryy	2b-\	-de	1ryy
.	.	.	.	.	.	.	1cc\	ru-	.
=31-	=31-	=31-	=31-	=31-	=31-	=31-	=31-	=31-	=31-
.	.	1ryy	1ryy	1ryy	1ryy	1ryy	.	.	1ryy
!	!	!	!	!	!	!	!LO:TX:b:t=P:problem=# below	!	!
!	!	!	!	!	!	!	!LO:N:acc=#	!	!
.	.	.	.	.	.	.	2bn\	-ti-	.
=32-	=32-	=32-	=32-	=32-	=32-	=32-	=32-	=32-	=32-
2r	.	1ryy	1ryy	1ryy	1ryy	1ryy	2cc\	-lans	1ryy
2c/	Val-	.	.	.	.	.	2r	.	.
=33-	=33-	=33-	=33-	=33-	=33-	=33-	=33-	=33-	=33-
*custos:A	*	*	*	*	*	*	*	*	*
2B-/	-de	1ryy	1ryy	1ryy	1ryy	1ryy	0r	.	1ryy
!LO:LB:g=original	!	!	!	!	!	!	!	!	!
2A/	ru-	.	.	.	.	.	.	.	.
=34-	=34-	=34-	=34-	=34-	=34-	=34-	=34-	=34-	=34-
1G	-ti-	1ryy	1ryy	1ryy	1ryy	1ryy	.	.	1ryy
=35-	=35-	=35-	=35-	=35-	=35-	=35-	=35-	=35-	=35-
2F/	-lans	1ryy	1ryy	1ryy	1ryy	1ryy	2r	.	1ryy
2r	.	.	.	.	.	.	2.dd\	fi-	.
=36-	=36-	=36-	=36-	=36-	=36-	=36-	=36-	=36-	=36-
0r	.	1ryy	1ryy	1ryy	1ryy	1ryy	.	.	1ryy
.	.	.	.	.	.	.	4dd\	-li-	.
.	.	.	.	.	.	.	2dd\	-a	.
=37-	=37-	=37-	=37-	=37-	=37-	=37-	=37-	=37-	=37-
.	.	1ryy	1ryy	1ryy	1ryy	1ryy	2.cc\	si-	1ryy
.	.	.	.	.	.	.	4b-y\	-o-	.
=38-	=38-	=38-	=38-	=38-	=38-	=38-	=38-	=38-	=38-
2r	.	1ryy	1ryy	1ryy	1ryy	1ryy	2a\	-on	1ryy
2.B-/	fi-	.	.	.	.	.	2r	.	.
=39-	=39-	=39-	=39-	=39-	=39-	=39-	=39-	=39-	=39-
.	.	1ryy	1ryy	1ryy	1ryy	1ryy	0r	.	1ryy
4B-/	-li-	.	.	.	.	.	.	.	.
2B-/	-a	.	.	.	.	.	.	.	.
=40-	=40-	=40-	=40-	=40-	=40-	=40-	=40-	=40-	=40-
1c	Si-	1ryy	1ryy	1ryy	1ryy	1ryy	.	.	1ryy
=41-	=41-	=41-	=41-	=41-	=41-	=41-	=41-	=41-	=41-
2d\	-on	1ryy	1ryy	1ryy	1ryy	1ryy	2r	.	1ryy
2r	.	.	.	.	.	.	2.dd\	fi-	.
=42-	=42-	=42-	=42-	=42-	=42-	=42-	=42-	=42-	=42-
0r	.	1ryy	1ryy	1ryy	1ryy	1ryy	.	.	1ryy
.	.	.	.	.	.	.	4dd\	-li-	.
.	.	.	.	.	.	.	2dd\	-a	.
=43-	=43-	=43-	=43-	=43-	=43-	=43-	=43-	=43-	=43-
.	.	1ryy	1ryy	1ryy	1ryy	1ryy	2.b-\	si-	1ryy
.	.	.	.	.	.	.	4cc\	.	.
=44-	=44-	=44-	=44-	=44-	=44-	=44-	=44-	=44-	=44-
*	*	*	*	*	*	*	*custos:dd	*	*
1r	.	1ryy	1ryy	1ryy	1ryy	1ryy	1dd	-on	1ryy
!	!	!	!	!	!	!	!LO:LB:g=original	!	!
=45-	=45-	=45-	=45-	=45-	=45-	=45-	=45-	=45-	=45-
*M3/2	*	*	*	*	*	*	*M3/2	*	*
2B-/	To-	1.ryy	1.ryy	1.ryy	1.ryy	1.ryy	00.r	.	1.ryy
2B-/	-ta	.	.	.	.	.	.	.	.
2B-/	for-	.	.	.	.	.	.	.	.
=46-	=46-	=46-	=46-	=46-	=46-	=46-	=46-	=46-	=46-
1e-X	-mo-	1.ryy	1.ryy	1.ryy	1.ryy	1.ryy	.	.	1.ryy
2B-/	-sa	.	.	.	.	.	.	.	.
=47-	=47-	=47-	=47-	=47-	=47-	=47-	=47-	=47-	=47-
1f	et	1.ryy	1.ryy	1.ryy	1.ryy	1.ryy	.	.	1.ryy
2d\	ſu-	.	.	.	.	.	.	.	.
=48-	=48-	=48-	=48-	=48-	=48-	=48-	=48-	=48-	=48-
1e-X	-a-	1.ryy	1.ryy	1.ryy	1.ryy	1.ryy	.	.	1.ryy
2c/	-uis	.	.	.	.	.	.	.	.
=49-	=49-	=49-	=49-	=49-	=49-	=49-	=49-	=49-	=49-
!	!	!	!	!	!	!	!LO:TX:t=P:problem=zbędna pauza 1.r	!	!
1.B-	es	1.ryy	1.ryy	1.ryy	1.ryy	1.ryy	0.r	.	1.ryy
=50-	=50-	=50-	=50-	=50-	=50-	=50-	=50-	=50-	=50-
!LO:TX:t=P:problem=zbędna pauza 1r w I Coro S 2	!	!	!	!	!	!	!	!	!
1.ryy	.	1.ryy	1.ryy	1.ryy	1.ryy	1.ryy	.	.	1.ryy
=51-	=51-	=51-	=51-	=51-	=51-	=51-	=51-	=51-	=51-
00.r	.	1.ryy	1.ryy	1.ryy	1.ryy	1.ryy	2dd\	To-	1.ryy
.	.	.	.	.	.	.	2dd\	-ta	.
.	.	.	.	.	.	.	2dd\	for-	.
=52-	=52-	=52-	=52-	=52-	=52-	=52-	=52-	=52-	=52-
.	.	1.ryy	1.ryy	1.ryy	1.ryy	1.ryy	1ee-X	-mo-	1.ryy
.	.	.	.	.	.	.	2dd\	-sa	.
=53-	=53-	=53-	=53-	=53-	=53-	=53-	=53-	=53-	=53-
.	.	1.ryy	1.ryy	1.ryy	1.ryy	1.ryy	1dd	et	1.ryy
.	.	.	.	.	.	.	2cc\	ſu-	.
=54-	=54-	=54-	=54-	=54-	=54-	=54-	=54-	=54-	=54-
.	.	1.ryy	1.ryy	1.ryy	1.ryy	1.ryy	1cc	-a-	1.ryy
.	.	.	.	.	.	.	2a\	-uis	.
=55-	=55-	=55-	=55-	=55-	=55-	=55-	=55-	=55-	=55-
1.r	.	1.ryy	1.ryy	1.ryy	1.ryy	1.ryy	1.b-,<	es	1.ryy
=56-	=56-	=56-	=56-	=56-	=56-	=56-	=56-	=56-	=56-
*custos:B-	*	*	*	*	*	*	*	*	*
2B-/	to-	1.ryy	1.ryy	1.ryy	1.ryy	1.ryy	2dd\	to-	1.ryy
!LO:LB:g=original	!	!	!	!	!	!	!	!	!
2B-/	-ta	.	.	.	.	.	2dd\	-ta	.
2B-/	for-	.	.	.	.	.	2b-\	for-	.
=57-	=57-	=57-	=57-	=57-	=57-	=57-	=57-	=57-	=57-
1B-	-mo-	1.ryy	1.ryy	1.ryy	1.ryy	1.ryy	1b-	-mo-	1.ryy
2f\	-sa	.	.	.	.	.	2cc\	-sa	.
=58-	=58-	=58-	=58-	=58-	=58-	=58-	=58-	=58-	=58-
1c	et	1.ryy	1.ryy	1.ryy	1.ryy	1.ryy	1dd	et	1.ryy
2g\	ſu-	.	.	.	.	.	2dd\	ſu-	.
=59-	=59-	=59-	=59-	=59-	=59-	=59-	=59-	=59-	=59-
1d	-a-	1.ryy	1.ryy	1.ryy	1.ryy	1.ryy	1dd	-a-	1.ryy
2d\	-uis	.	.	.	.	.	2a\	-vis	.
=60-	=60-	=60-	=60-	=60-	=60-	=60-	=60-	=60-	=60-
*M2/2	*	*	*	*	*	*	*M2/2	*	*
*met(C|)	*	*	*	*	*	*	*met(C|)	*	*
2g\	es	1ryy	1ryy	1ryy	1ryy	1ryy	2b-,<\	es	1ryy
2r	.	.	.	.	.	.	2b-\	pul-	.
=61-	=61-	=61-	=61-	=61-	=61-	=61-	=61-	=61-	=61-
*	*	*	*	*	*	*	*custos:f	*	*
00r	.	1ryy	1ryy	1ryy	1ryy	1ryy	2a\	-chra	1ryy
!	!	!	!	!	!	!	!LO:LB:g=original	!	!
.	.	.	.	.	.	.	2f/	ut	.
=62-	=62-	=62-	=62-	=62-	=62-	=62-	=62-	=62-	=62-
.	.	1ryy	1ryy	1ryy	1ryy	1ryy	1g	lu-	1ryy
=63-	=63-	=63-	=63-	=63-	=63-	=63-	=63-	=63-	=63-
.	.	1ryy	1ryy	1ryy	1ryy	1ryy	2a\	-na,	1ryy
.	.	.	.	.	.	.	2a\	ut	.
=64-	=64-	=64-	=64-	=64-	=64-	=64-	=64-	=64-	=64-
.	.	1ryy	1ryy	1ryy	1ryy	1ryy	1g	lu-	1ryy
=65-	=65-	=65-	=65-	=65-	=65-	=65-	=65-	=65-	=65-
00r	.	1ryy	1ryy	1ryy	1ryy	1ryy	2a\	-na,	1ryy
.	.	.	.	.	.	.	4a\	pul-	.
.	.	.	.	.	.	.	4b-\	.	.
=66-	=66-	=66-	=66-	=66-	=66-	=66-	=66-	=66-	=66-
.	.	1ryy	1ryy	1ryy	1ryy	1ryy	2cc\	-chra	1ryy
.	.	.	.	.	.	.	2cc\	ut	.
=67-	=67-	=67-	=67-	=67-	=67-	=67-	=67-	=67-	=67-
.	.	1ryy	1ryy	1ryy	1ryy	1ryy	1b-	lu-	1ryy
=68-	=68-	=68-	=68-	=68-	=68-	=68-	=68-	=68-	=68-
.	.	1ryy	1ryy	1ryy	1ryy	1ryy	2cc\	-na	1ryy
.	.	.	.	.	.	.	2cc\	e-	.
=69-	=69-	=69-	=69-	=69-	=69-	=69-	=69-	=69-	=69-
0r	.	1ryy	1ryy	1ryy	1ryy	1ryy	2b-\	-le-	1ryy
.	.	.	.	.	.	.	2cc\	-cta	.
=70-	=70-	=70-	=70-	=70-	=70-	=70-	=70-	=70-	=70-
.	.	1ryy	1ryy	1ryy	1ryy	1ryy	1dd	ut	1ryy
=71-	=71-	=71-	=71-	=71-	=71-	=71-	=71-	=71-	=71-
1r	.	1ryy	1ryy	1ryy	1ryy	1ryy	1b-	ſol,	1ryy
=72-	=72-	=72-	=72-	=72-	=72-	=72-	=72-	=72-	=72-
2r	.	1ryy	1ryy	1ryy	1ryy	1ryy	1r	.	1ryy
2d\	pul-	.	.	.	.	.	.	.	.
=73-	=73-	=73-	=73-	=73-	=73-	=73-	=73-	=73-	=73-
2c/	-chra	1ryy	1ryy	1ryy	1ryy	1ryy	2r	.	1ryy
2A/	vt	.	.	.	.	.	2cc\	pul-	.
=74-	=74-	=74-	=74-	=74-	=74-	=74-	=74-	=74-	=74-
1B-	lu-	1ryy	1ryy	1ryy	1ryy	1ryy	2b-\	-chra	1ryy
.	.	.	.	.	.	.	2g/	.	.
=75-	=75-	=75-	=75-	=75-	=75-	=75-	=75-	=75-	=75-
1A,<	-na	1ryy	1ryy	1ryy	1ryy	1ryy	2a\	ut	1ryy
.	.	.	.	.	.	.	2f/	lu-	.
=76-	=76-	=76-	=76-	=76-	=76-	=76-	=76-	=76-	=76-
1G	e-	1ryy	1ryy	1ryy	1ryy	1ryy	1b-,<	-na	1ryy
=77-	=77-	=77-	=77-	=77-	=77-	=77-	=77-	=77-	=77-
4c/	-le-	1ryy	1ryy	1ryy	1ryy	1ryy	2.g/	e-	1ryy
4d\	.	.	.	.	.	.	.	.	.
4eny\	.	.	.	.	.	.	.	.	.
4f\	.	.	.	.	.	.	4a\	.	.
=78-	=78-	=78-	=78-	=78-	=78-	=78-	=78-	=78-	=78-
*custos:c	*	*	*	*	*	*	*custos:cc	*	*
1g	.	1ryy	1ryy	1ryy	1ryy	1ryy	1b-	-le-	1ryy
!LO:LB:g=original	!	!	!	!	!	!	!LO:LB:g=original	!	!
=79-	=79-	=79-	=79-	=79-	=79-	=79-	=79-	=79-	=79-
4c/	-cta	1ryy	1ryy	1ryy	1ryy	1ryy	1cc	-cta	1ryy
4d\	.	.	.	.	.	.	.	.	.
4e\	.	.	.	.	.	.	.	.	.
4c,</	.	.	.	.	.	.	.	.	.
=80-	=80-	=80-	=80-	=80-	=80-	=80-	=80-	=80-	=80-
4f\	Vt	1ryy	1ryy	1ryy	1ryy	1ryy	1a	ut	1ryy
4e\	.	.	.	.	.	.	.	.	.
4d\	.	.	.	.	.	.	.	.	.
4c/	.	.	.	.	.	.	.	.	.
=81-	=81-	=81-	=81-	=81-	=81-	=81-	=81-	=81-	=81-
4B-,</	sol	1ryy	1ryy	1ryy	1ryy	1ryy	1b-	ſol,	1ryy
4B-/	ter-	.	.	.	.	.	.	.	.
4.B-/	-ri-	.	.	.	.	.	.	.	.
8B-/	-bi-	.	.	.	.	.	.	.	.
=82-	=82-	=82-	=82-	=82-	=82-	=82-	=82-	=82-	=82-
1f	-lis	1ryy	1ryy	1ryy	1ryy	1ryy	4r	.	1ryy
.	.	.	.	.	.	.	4cc\	ter-	.
.	.	.	.	.	.	.	4.cc\	-ri-	.
!	!	!	!	!	!	!	!LO:N:vis=4	!	!
.	.	.	.	.	.	.	8cc\	-bi-	.
=83-	=83-	=83-	=83-	=83-	=83-	=83-	=83-	=83-	=83-
4r	.	1ryy	1ryy	1ryy	1ryy	1ryy	2cc\	-lis	1ryy
4c/	ter-	.	.	.	.	.	.	.	.
4.c/	-ri-	.	.	.	.	.	4r	.	.
.	.	.	.	.	.	.	4cc\	ter-	.
!LO:N:vis=4	!	!	!	!	!	!	!	!	!
8c/	-bi-	.	.	.	.	.	.	.	.
=84-	=84-	=84-	=84-	=84-	=84-	=84-	=84-	=84-	=84-
2g\	-lis	1ryy	1ryy	1ryy	1ryy	1ryy	4.b-\	-ri-	1ryy
.	.	.	.	.	.	.	8b-\	-bi-	.
2c/	ter-	.	.	.	.	.	4cc\	-lis	.
.	.	.	.	.	.	.	4cc\	ter-	.
=85-	=85-	=85-	=85-	=85-	=85-	=85-	=85-	=85-	=85-
2.f\	-ri-	1ryy	1ryy	1ryy	1ryy	1ryy	2.cc\	-ri-	1ryy
4f\	-bi-	.	.	.	.	.	4cc\	-bi-	.
=86-	=86-	=86-	=86-	=86-	=86-	=86-	=86-	=86-	=86-
*M3/2	*	*	*	*	*	*	*M3/2	*	*
2B-/	-lis	1.ryy	1.ryy	1.ryy	1.ryy	1.ryy	2b-\	-lis	1.ryy
2B-/	vt	.	.	.	.	.	2r	.	.
2f\	cas-	.	.	.	.	.	2r	.	.
=87-	=87-	=87-	=87-	=87-	=87-	=87-	=87-	=87-	=87-
1g	-tro-	1.ryy	1.ryy	1.ryy	1.ryy	1.ryy	1.r	.	1.ryy
2d\	-rum	.	.	.	.	.	.	.	.
=88-	=88-	=88-	=88-	=88-	=88-	=88-	=88-	=88-	=88-
*custos:f	*	*	*	*	*	*	*	*	*
0.r	.	1.ryy	1.ryy	1.ryy	1.ryy	1.ryy	1dd	ut	1.ryy
.	.	.	.	.	.	.	2cc\	caſ-	.
=89-	=89-	=89-	=89-	=89-	=89-	=89-	=89-	=89-	=89-
.	.	1.ryy	1.ryy	1.ryy	1.ryy	1.ryy	1b-	-tro-	1.ryy
.	.	.	.	.	.	.	2a\	-rum	.
!LO:LB:g=original	!	!	!	!	!	!	!	!	!
=90-	=90-	=90-	=90-	=90-	=90-	=90-	=90-	=90-	=90-
1f	vt	1.ryy	1.ryy	1.ryy	1.ryy	1.ryy	0.r	.	1.ryy
2c/	cas-	.	.	.	.	.	.	.	.
=91-	=91-	=91-	=91-	=91-	=91-	=91-	=91-	=91-	=91-
1d	-tro-	1.ryy	1.ryy	1.ryy	1.ryy	1.ryy	.	.	1.ryy
2A/	-rum	.	.	.	.	.	.	.	.
=92-	=92-	=92-	=92-	=92-	=92-	=92-	=92-	=92-	=92-
*M2/2	*	*	*	*	*	*	*M2/2	*	*
*met(C|)	*	*	*	*	*	*	*met(C|)	*	*
4.B-/	a-	1ryy	1ryy	1ryy	1ryy	1ryy	4.dd\	a-	1ryy
*	*	*	*	*	*	*	*custos:b-	*	*
8B-/	-ci-	.	.	.	.	.	8dd\	-ci-	.
!	!	!	!	!	!	!	!LO:LB:g=original	!	!
2B-/	-es	.	.	.	.	.	2b-\	-es	.
=93-	=93-	=93-	=93-	=93-	=93-	=93-	=93-	=93-	=93-
4e-X\	or-	1ryy	1ryy	1ryy	1ryy	1ryy	4b-\	or-	1ryy
4B-/	-di-	.	.	.	.	.	4b-\	-di-	.
2f\	-na-	.	.	.	.	.	2cc\	-na-	.
=94-	=94-	=94-	=94-	=94-	=94-	=94-	=94-	=94-	=94-
2B-/	-ta	1ryy	1ryy	1ryy	1ryy	1ryy	2b-,<\	-ta	1ryy
4.f\	a-	.	.	.	.	.	4.cc\	a-	.
8f\	-ci-	.	.	.	.	.	8cc\	-ci-	.
=95-	=95-	=95-	=95-	=95-	=95-	=95-	=95-	=95-	=95-
2f\	-es	1ryy	1ryy	1ryy	1ryy	1ryy	2cc\	-es	1ryy
4c/	or-	.	.	.	.	.	4cc\	or-	.
4g\	-di-	.	.	.	.	.	4b-\	-di-	.
=96-	=96-	=96-	=96-	=96-	=96-	=96-	=96-	=96-	=96-
1d	-na-	1ryy	1ryy	1ryy	1ryy	1ryy	1a	-na-	1ryy
=97-	=97-	=97-	=97-	=97-	=97-	=97-	=97-	=97-	=97-
*M3/2	*	*	*	*	*	*	*M3/2	*	*
2g\	-ta	1.ryy	1.ryy	1.ryy	1.ryy	1.ryy	2b-,<\	-ta	1.ryy
2r	.	.	.	.	.	.	2dd\	Al-	.
2r	.	.	.	.	.	.	2dd\	-le-	.
=98-	=98-	=98-	=98-	=98-	=98-	=98-	=98-	=98-	=98-
0.r	.	1.ryy	1.ryy	1.ryy	1.ryy	1.ryy	2.b-\	-lu-	1.ryy
.	.	.	.	.	.	.	4cc\	.	.
.	.	.	.	.	.	.	2dd,<\	-ia	.
=99-	=99-	=99-	=99-	=99-	=99-	=99-	=99-	=99-	=99-
.	.	1.ryy	1.ryy	1.ryy	1.ryy	1.ryy	2g/	Al-	1.ryy
.	.	.	.	.	.	.	2b-\	-le-	.
.	.	.	.	.	.	.	2cc\	-lu-	.
=100-	=100-	=100-	=100-	=100-	=100-	=100-	=100-	=100-	=100-
2r	.	1.ryy	1.ryy	1.ryy	1.ryy	1.ryy	2b-\	-ia	1.ryy
2B-/	Al-	.	.	.	.	.	2r	.	.
2f\	-le-	.	.	.	.	.	2r	.	.
=101-	=101-	=101-	=101-	=101-	=101-	=101-	=101-	=101-	=101-
!	!	!	!	!	!	!	!LO:TX:t=P:problem=brak pauzy 0.r	!	!
1g	-lu-	1.ryy	1.ryy	1.ryy	1.ryy	1.ryy	1.ryy	.	1.ryy
2d\	-ia	.	.	.	.	.	.	.	.
=102-	=102-	=102-	=102-	=102-	=102-	=102-	=102-	=102-	=102-
2e-X\	Al-	1.ryy	1.ryy	1.ryy	1.ryy	1.ryy	1.ryy	.	1.ryy
*custos:f	*	*	*	*	*	*	*	*	*
2B-/	-le-	.	.	.	.	.	.	.	.
!LO:PB:g=original	!	!	!	!	!	!	!	!	!
2f\	-lu-	.	.	.	.	.	.	.	.
=103-	=103-	=103-	=103-	=103-	=103-	=103-	=103-	=103-	=103-
*M2/2	*	*	*	*	*	*	*M2/2	*	*
*met(C|)	*	*	*	*	*	*	*met(C|)	*	*
2B-/	-ia	1ryy	1ryy	1ryy	1ryy	1ryy	2r	.	1ryy
1g\	Al-	.	.	.	.	.	1b-\	Al-	.
=104-	=104-	=104-	=104-	=104-	=104-	=104-	=104-	=104-	=104-
.	.	1ryy	1ryy	1ryy	1ryy	1ryy	.	.	1ryy
2g\	-le-	.	.	.	.	.	2b-\	-le-	.
=105-	=105-	=105-	=105-	=105-	=105-	=105-	=105-	=105-	=105-
4c/	-lu-	1ryy	1ryy	1ryy	1ryy	1ryy	1cc	-lu-	1ryy
4d\	.	.	.	.	.	.	.	.	.
4eny\	.	.	.	.	.	.	.	.	.
4f\	.	.	.	.	.	.	.	.	.
=106-	=106-	=106-	=106-	=106-	=106-	=106-	=106-	=106-	=106-
*	*	*	*	*	*	*	*custos:dd	*	*
2g\	-ia	1ryy	1ryy	1ryy	1ryy	1ryy	2b-\	-ia	1ryy
!	!	!	!	!	!	!	!LO:LB:g=original	!	!
2g\	Al-	.	.	.	.	.	2dd\	Al-	.
=107-	=107-	=107-	=107-	=107-	=107-	=107-	=107-	=107-	=107-
2.d\	-le-	1ryy	1ryy	1ryy	1ryy	1ryy	2.dd\	-le-	1ryy
4d\	-lu-	.	.	.	.	.	4dd\	-lu-	.
=108-	=108-	=108-	=108-	=108-	=108-	=108-	=108-	=108-	=108-
1gl;;	-ia	1ryy	1ryy	1ryy	1ryy	1ryy	1b-l;;	-ia.	1ryy
==	==	==	==	==	==	==	==	==	==
*-	*-	*-	*-	*-	*-	*-	*-	*-	*-
!!!system-decoration: [(s1,s2,s3,s4)][(s5,s6,s7,s8)]
!!!RDF**kern: > = above
!!!RDF**kern: < = below
!!!RDF**kern: l = terminal long
!!!ENC: Anastazja Marusiak
!!!END: 2021-09-30
!!!ENC: Andrzej Kubiczek
!!!END: 2021-10-08
